X:1
T:Title
%%score { ( 1 4 ) | ( 2 3 ) }
L:1/8
Q:1/4=100
M:4/4
K:Ab
V:1 treble nm="Grand Piano"
V:4 treble 
V:2 treble 
V:3 treble 
V:1
 E2 A2 c3 d | [EAc]2 [DGB]>[_G=A] [D=GB]4 | [G,E]2 [B,EG]2 [DGB]2 [FGd]2 | d2 c>_c =c4 | %4
w: Uzziah~C.~Burnap * * *||||
 E2 A2 c2 [_GAe]2 | [_GAe]3 [FAd] [Ec]2 B2 | [CEA]2 [A,CE]2 [A,=DF]2 [B,_DG]2 | [A,CA]8 |] %8
w: ||||
V:2
 [A,C]2 [A,CE]2 [A,EA]3 [A,FA] | E,2 z z/ C/ E,4 | E,2 E,2 E,2 E,2 | [A,FA]2 E>=D [A,EA]4 | %4
 [A,C]2 [A,CE]2 [A,EA]2[K:bass] C,2 | D,3 D, z2 D2 | E,2 E,2 B,,2 E,2 | A,,8 |] %8
V:3
 x8 | z2 E,2 z4 | x8 | z2 [A,A]2 z4 | x6[K:bass] x2 | z4 D,4 | x8 | x8 |] %8
V:4
 x8 | x8 | x8 | x8 | x8 | z4 F4 | x8 | x8 |] %8

